X:2417
T:Caledonian March
S:Charlie Saksena
R:March
O:Scotland
M:4/4
L:1/4
A:Orkney
K:D
DF |\
A>F AB | A2 de | fefg | f2ed | B>c dB | AFDF \
|1 E>EEF | E2 :|2 D2D2 |D2:|
|: fg |\
a>gfg | a2A2 | d>cde | f2F2 |\
G>FGA | BAGF | E>DEF | E2DF |
A>FAB | A2de | f>efg | f2ed |\
B>cdB | AFEF | D2D2 | D2 :|


